icons/src/fluent/svg/arrow_circle_left_24_filled.svg

<svg width="24" height="24" viewBox="0 0 24 24" fill="none" xmlns="http://www.w3.org/2000/svg">
<path d="M12 2C6.47715 2 2 6.47715 2 12C2 17.5228 6.47715 22 12 22C17.5228 22 22 17.5228 22 12C22 6.47715 17.5228 2 12 2ZM12.2801 16.5307C12.0138 16.797 11.5972 16.8212 11.3036 16.6033L11.2195 16.5307L7.21863 12.5299C6.95233 12.2636 6.92816 11.8468 7.14609 11.5532L7.21873 11.4691L11.2203 7.46911C11.5132 7.17628 11.9881 7.17637 12.2809 7.46931C12.5471 7.73563 12.5713 8.1523 12.3534 8.44587L12.2807 8.52997L9.55878 11.2507L16.2505 11.2504C16.6302 11.2504 16.944 11.5325 16.9936 11.8986L17.0005 12.0004C17.0005 12.3801 16.7183 12.6939 16.3523 12.7435L16.2505 12.7504L9.56078 12.7507L12.2801 15.47C12.5464 15.7363 12.5706 16.153 12.3527 16.4466L12.2801 16.5307Z" fill="#212121"/>
</svg>

<svg width="24" height="24" fill="none" viewBox="0 0 24 24" xmlns="http://www.w3.org/2000/svg"><path d="M12 2.001c-5.523 0-10 4.477-10 10s4.477 10 10 10 10-4.477 10-10-4.477-10-10-10Zm.28 14.53a.75.75 0 0 1-.976.073l-.085-.072-4-4.001a.75.75 0 0 1-.073-.977l.073-.084 4.001-4a.75.75 0 0 1 1.133.977l-.072.084-2.722 2.72h6.691a.75.75 0 0 1 .744.649L17 12a.75.75 0 0 1-.648.744l-.102.006H9.56l2.72 2.72a.75.75 0 0 1 .073.977l-.073.084Z" fill="#212121"/></svg>
